images/articles-icon.svg

<svg width="14" height="16" viewBox="0 0 14 16" fill="none" xmlns="http://www.w3.org/2000/svg">
<path opacity="0.4" d="M14 11.25V0.75C14 0.334375 13.6656 0 13.25 0H3C1.34375 0 0 1.34375 0 3V13C0 14.6562 1.34375 16 3 16H13.25C13.6656 16 14 15.6656 14 15.25V14.75C14 14.5156 13.8906 14.3031 13.7219 14.1656C13.5906 13.6844 13.5906 12.3125 13.7219 11.8313C13.8906 11.6969 14 11.4844 14 11.25ZM4 4.1875C4 4.08437 4.08437 4 4.1875 4H10.8125C10.9156 4 11 4.08437 11 4.1875V4.8125C11 4.91563 10.9156 5 10.8125 5H4.1875C4.08437 5 4 4.91563 4 4.8125V4.1875ZM4 6.1875C4 6.08437 4.08437 6 4.1875 6H10.8125C10.9156 6 11 6.08437 11 6.1875V6.8125C11 6.91563 10.9156 7 10.8125 7H4.1875C4.08437 7 4 6.91563 4 6.8125V6.1875ZM11.9187 14H3C2.44688 14 2 13.5531 2 13C2 12.45 2.45 12 3 12H11.9187C11.8594 12.5344 11.8594 13.4656 11.9187 14Z" fill="#9FA2B4"/>
</svg>

<svg width="14" height="16" fill="none" xmlns="http://www.w3.org/2000/svg"><path opacity=".4" d="M14 11.25V.75a.748.748 0 0 0-.75-.75H3a3 3 0 0 0-3 3v10a3 3 0 0 0 3 3h10.25c.416 0 .75-.334.75-.75v-.5a.756.756 0 0 0-.278-.584c-.131-.482-.131-1.854 0-2.335A.745.745 0 0 0 14 11.25ZM4 4.187C4 4.085 4.084 4 4.188 4h6.625c.103 0 .187.084.187.188v.625a.188.188 0 0 1-.188.187H4.189A.188.188 0 0 1 4 4.812v-.625Zm0 2C4 6.085 4.084 6 4.188 6h6.625c.103 0 .187.084.187.188v.625a.188.188 0 0 1-.188.187H4.189A.188.188 0 0 1 4 6.812v-.625ZM11.919 14H3a.999.999 0 1 1 0-2h8.919c-.06.534-.06 1.466 0 2Z" fill="#9FA2B4"/></svg>
